X: 9760
T:Yankee Doodle
R:1st Change
Z:Chris Falt <cfalt@trytle.com>
M:2/4
L:1/8
K:D
(3A/2B/2c/2|"D"dd ef|df eA|dd ef|d2 "A7"c2|\
"D"dd ef|"G"gf ed|"A7"cA Bc|"D"d2 d:|!
|:A|"G"B>c BA|Bc dB|"D"A>B AG|F2 A2|\
"G"B>c BA|Bc dB|"D"Ad "A7"ce|"D"d2 d:|]
